src/assets/svg/ic_phone_conference.svg

<svg xmlns="http://www.w3.org/2000/svg" width="16" height="16">
    <path d="M13.924 6.895l-.955-.958a.351.351 0 00-.491.013l-.135.135-.191.188c-.37.37-.954.383-1.308.031l-.159-.158-.798-.799c-.353-.354-.338-.94.031-1.308l.107-.105.083-.083.136-.136a.347.347 0 00.011-.49l-.957-.957a.345.345 0 00-.489.012l-.217.242c-.251.251-.429.58-.474.862-.112.704.301 2.052 1.478 3.228.001.003.004.004.006.005l.006.008c1.176 1.178 2.525 1.59 3.228 1.476.284-.044.611-.221.863-.473l.216-.241c.137-.14.143-.361.009-.492zm.367 4.914l-2.088-2.09c-.29-.285-.77-.273-1.07.026l-.295.294-.417.411c-.808.806-2.084.836-2.854.067l-.349-.347-1.739-1.74c-.77-.771-.739-2.047.068-2.855l.235-.229.181-.179.295-.297c.301-.302.31-.781.023-1.07l-2.09-2.089c-.287-.287-.765-.277-1.068.025l-.471.53c-.548.548-.935 1.263-1.034 1.882-.246 1.535.655 4.478 3.224 7.045.004.005.01.009.014.012l.013.014c2.567 2.569 5.511 3.471 7.045 3.225.619-.098 1.335-.485 1.883-1.033l.472-.53c.299-.304.31-.783.022-1.072z"/>
</svg>

<?xml version="1.0" encoding="utf-8"?>
<!-- Generator: Adobe Illustrator 16.0.4, SVG Export Plug-In . SVG Version: 6.00 Build 0)  -->
<!DOCTYPE svg PUBLIC "-//W3C//DTD SVG 1.1//EN" "http://www.w3.org/Graphics/SVG/1.1/DTD/svg11.dtd">
<svg version="1.1" id="artwork" xmlns="http://www.w3.org/2000/svg" xmlns:xlink="http://www.w3.org/1999/xlink" x="0px" y="0px"
	 width="16px" height="16px" viewBox="0 0 16 16" enable-background="new 0 0 16 16" xml:space="preserve">
<g>
	<path d="M13.924,6.895l-0.955-0.958c-0.134-0.13-0.354-0.124-0.491,0.013l-0.135,0.135l-0.191,0.188
		c-0.37,0.37-0.954,0.383-1.308,0.031l-0.159-0.158L9.887,5.347C9.534,4.993,9.549,4.407,9.918,4.039l0.107-0.105l0.083-0.083
		l0.136-0.136c0.139-0.139,0.142-0.357,0.011-0.49L9.298,2.268C9.166,2.136,8.946,2.141,8.809,2.28L8.592,2.522
		C8.341,2.773,8.163,3.102,8.118,3.384C8.006,4.088,8.419,5.436,9.596,6.612C9.597,6.615,9.6,6.616,9.602,6.617
		c0.001,0.002,0.004,0.005,0.006,0.008c1.176,1.178,2.525,1.59,3.228,1.476c0.284-0.044,0.611-0.221,0.863-0.473l0.216-0.241
		C14.052,7.247,14.058,7.026,13.924,6.895z"/>
</g>
<g>
	<g>
		<path d="M14.291,11.809l-2.088-2.09c-0.29-0.285-0.77-0.273-1.07,0.026l-0.295,0.294l-0.417,0.411
			c-0.808,0.806-2.084,0.836-2.854,0.067L7.218,10.17L5.479,8.43C4.709,7.659,4.74,6.383,5.547,5.575l0.235-0.229l0.181-0.179
			L6.258,4.87C6.559,4.568,6.568,4.089,6.281,3.8l-2.09-2.089C3.904,1.424,3.426,1.434,3.123,1.736L2.652,2.266
			C2.104,2.814,1.717,3.529,1.618,4.148c-0.246,1.535,0.655,4.478,3.224,7.045c0.004,0.005,0.01,0.009,0.014,0.012
			c0.004,0.004,0.008,0.01,0.013,0.014c2.567,2.569,5.511,3.471,7.045,3.225c0.619-0.098,1.335-0.485,1.883-1.033l0.472-0.53
			C14.568,12.577,14.579,12.098,14.291,11.809z"/>
	</g>
</g>
</svg>
